resources/svg/major-automation.svg

<svg xmlns="http://www.w3.org/2000/svg" viewBox="0 0 20 20" fill="currentColor"><path fill-rule="evenodd" d="M8.03774 0.858582C8.10805 0.365936 8.52993 0 9.02749 0H11.2931C11.7907 0 12.2125 0.365936 12.2829 0.858582L12.6542 3.45728C13.3566 3.72517 14.0048 4.10292 14.5778 4.56953L17.0155 3.591C17.4774 3.40564 18.0053 3.58806 18.254 4.01904L19.3869 5.98094C19.6356 6.41193 19.5297 6.96028 19.1383 7.26755L17.0727 8.88898C17.1115 9.13266 17.1378 9.38052 17.1508 9.6319C17.1571 9.7538 17.1603 9.87653 17.1603 10C17.1603 10.3781 17.1303 10.7492 17.0727 11.111L19.1383 12.7324C19.5297 13.0397 19.6356 13.5881 19.3869 14.019L18.254 15.9809C18.0053 16.4119 17.4774 16.5943 17.0155 16.409L14.5778 15.4305C14.0048 15.8971 13.3566 16.2748 12.6542 16.5427L12.2829 19.1414C12.2125 19.6341 11.7907 20 11.2931 20H9.02749C8.52993 20 8.10805 19.6341 8.03774 19.1414L7.6664 16.5427C6.96401 16.2748 6.31582 15.897 5.74282 15.4304L3.30483 16.409C2.84292 16.5943 2.31509 16.4119 2.06631 15.9809L0.933738 14.019C0.684714 13.5881 0.790671 13.0397 1.18227 12.7324L3.24795 11.1109C3.19033 10.7491 3.1603 10.3781 3.1603 10C3.1603 9.62193 3.19033 9.25085 3.24795 8.88904L1.18227 7.26755C0.790671 6.96028 0.684714 6.41193 0.933738 5.98094L2.06631 4.01904C2.31509 3.58806 2.84292 3.40564 3.30483 3.591L5.74282 4.5696C6.31582 4.10295 6.96401 3.72517 7.6664 3.45728L8.03774 0.858582ZM8.77735 6.51823L13.376 9.58397C13.6728 9.78189 13.6728 10.2181 13.376 10.416L8.77735 13.4818C8.44507 13.7033 8 13.4651 8 13.0657V10V6.93426C8 6.53491 8.44507 6.29672 8.77735 6.51823Z" fill="#5C5F62"/></svg>

<svg xmlns="http://www.w3.org/2000/svg" viewBox="0 0 20 20" fill="currentColor"><path fill-rule="evenodd" d="M8.038.859a1 1 0 0 1 .99-.859h2.265a1 1 0 0 1 .99.859l.371 2.598c.703.268 1.35.646 1.924 1.113l2.438-.979a1 1 0 0 1 1.238.428l1.133 1.962a1 1 0 0 1-.249 1.287l-2.065 1.621a7.034 7.034 0 0 1 0 2.222l2.065 1.621a1 1 0 0 1 .249 1.287l-1.133 1.962a1 1 0 0 1-1.239.428l-2.437-.978a6.995 6.995 0 0 1-1.924 1.112l-.371 2.598a1 1 0 0 1-.99.859h-2.266a1 1 0 0 1-.99-.859l-.37-2.598a6.995 6.995 0 0 1-1.924-1.113l-2.438.979a1 1 0 0 1-1.239-.428l-1.132-1.962a1 1 0 0 1 .248-1.287l2.066-1.621a7.06 7.06 0 0 1 0-2.222l-2.066-1.621a1 1 0 0 1-.248-1.287l1.132-1.962a1 1 0 0 1 1.239-.428l2.438.979a6.993 6.993 0 0 1 1.923-1.113l.372-2.598Zm.74 5.66 4.598 3.065a.5.5 0 0 1 0 .832l-4.599 3.066a.5.5 0 0 1-.777-.416v-6.132a.5.5 0 0 1 .777-.416Z"/></svg>
